X:SSF 14-19c 06
T:La Russe
B:Kennedy, Fiddler's Tune Book, vol.1, 1951
M:4/4
K:G
P:A
G2B2 B2d2 |1,3 d2g2 g2fg a2g2 f2e2 e2d2 dcBA :|2,4 d2g2 g2fg e2d2 B2G2 A2G2 G2 :|
P:B
K:D
A2d2 d2cB A2a2 a2f2 |1,3 g2f2 g2e2 fga2 f2dB :|2 g2f2 g2e2 d4 d4 :|4 g2f2 g2e2 d2c2 =c4 ||

% Into SSF 14-19c 07 Winster Gallop, into SSF 14-19c 08 Salmon Tails Up The Water

